X:1
T:The Pan-Am-Rag.
T:The
T:Composed by Tom Turpin.
T:Arranged by A. Marshall
T: Pan-Am-Rag.
T:1914
T:1914
T:1914
T:1914
C:Composed by Tom Turpin.
Z:Arranged by A. Marshall
Z:1914
%%score { ( 1 3 ) | 2 }
L:1/8
Q:1/4=90
M:2/4
K:G
V:1 treble nm="Piano" snm="Pno."
V:3 treble 
V:2 bass 
V:1
"^Introduction moderato."!mf! [B,DGB]4 | [B,DGB][C_EFA] [B,=EG]2 | %2
 [DGd]/[DGd][DGd]/ [D=FBd][DGBd] | [D^Fcd] z [DFAcd] z |: z/ D/E/F/ G/A/B/c/ | %5
{/c} [=FB]/[FA][FG]/- [FG]/[FA][FB]/ |{/B} [EA]/[EG][_EA]/- [EA]/[EG]/A/^A/ | B/de/ d/c/A/F/ | %8
 z/ D/E/F/ G/A/B/c/ | [B,_EB]/[B,FA][B,=EG]/- [B,EG]/[B,_EA]/[B,=EB] | D/dB/ A/F/E/D/ | %11
 F/[_A,D]/[G,^CE] [F,=A,D] z | z/ D/E/F/ G/A/B/c/ |{/c} [=FB]/[FA][FG]/- [FG]/[FA][FB]/ | %14
{/B} [EA]/[EG][_EA]/- [EA]/[EG]/A/^A/ | [B,_EFB]2- [B,EFB]2 | [E^GBe]/[EGBd][DEGB]/- [DEGB]2 | %17
 [^CGB]/[CGA][CEG]/- [CEG][CG]/[=CGA]/ | [DGB]/G/A/B/ G/A/B/G/ |1 %19
 B/[^CG]/[=CFA] [B,DG]!^![DFAcd] :|2 B/[^CG]/[=CFA] [B,DG] z || [=FB]/[F_B][FA]/- [FA][F^A] | %22
 [=FG]/[F^G][FA]/- [FA][F^A] | [=FB][F_B][FA][F^A] | [=FG] z [FBd=fg] (3g/a/b/ |: %25
[K:C]!mf! [cgc']/ z/ (a/g/) (e/d/c/A/) | G/E/D/C/ z2 | [D^FAd] z z2 | z4 | [FBe]d/B/ A/G/F/D/ | %30
 x2 z2 | c/d/e/g/ [B_e^fb][Aefa] |{Bdg} a/g/f/_d/ e/=d/B/G/ |{gab} [cgc']/ z/ (a/g/ e/d/c/A/) | %34
 (G/E/D/C/) z2 | [D^FAd] z z2 | z4 | ([FBe]d/B/) (A/G/F/D/) | x2 z2 | c/d/e/g/ [Be][FBd] |1 %40
 [EGc]/[Gg]/[^F^f]/[Gg]/ [^G^g]/[Aa]/[Bb] :|2 [EGc] z [cegc']!8va(! (3g/b/d'/ || %42
 [g_be']/[gb^d']/[gbe']/[gb=d']/- [gbd'][gbc']!8va)! | %43
{Gcd} [G_Be]/[GB^d]/[GBe]/[GB=d]/- [GBd][Gc] | %44
!8va(! [fae']/[fa^d']/[fae']/[fa=d']/- [fad'][fac']!8va)! | %45
 [FAe]/[FA^d]/[FAe]/[FA=d]/- [FAd][FAc] |{cd^d} e/g (3c/4=d/4^d/4 e/ga/ | %47
 [egc']a/[eg]/- [eg]/e/d/c/ | [^FAe]/[FAd]/[FAc]/[FAe]/- [FAe]/[FA^d]/[FAe] | %49
 [=FBd]G/A/ B/c/d/^d/ |!8va(! [g_be']/[gb^d']/[gbe']/[gb=d']/- [gbd'][gbc']!8va)! | %51
 [G_Be]/[GB^d]/[GBe]/[GB=d]/- [GBd][Gc] | %52
!8va(! [fae']/[fa^d']/[fae']/[fa=d']/- [fad'][fac']!8va)! | %53
 [FAe]/[FA^d]/[FAe]/[FA=d]/- [FAd][FAc] ||{cd^d} e/g (3c/4=d/4^d/4 e/ga/ | %55
 [egc']a/[eg]/- [eg]/e/d/c/ | [^Fe]/c/d/[Fe]/- [Fe]/c/[=FGd] | [EGc] z [cegc'] z |: %58
"^Trio."!8va(!{gc'd'} [g_be']/[gb^d']/[gbe']/[gb=d']/- [gbd'][gbc']!8va)! | x4 | %60
!8va(! [fae']/[fa^d']/[fae']/[fa=d']/- [fad'][fac'] | x4 | %62
 [f_ae']/[fa^d']/[fae']/[fa=d']/- [fad'][fac'] | x4 | [gg'][fb][fc'][f^c'] | %65
 [fbd'] z !^![gbd'f'g'] z!8va)! :|{gab} [cgc']/ z/ (a/g/) (e/d/c/A/) | (G/E/D/C/) z2 | %68
 [D^FAd] z z2 | z4 | ([FBe]d/B/ A/G/F/D/) | x2 z2 | (c/d/e/g/) [B_e^fb][Aefa] | %73
{Bdg} a/g/f/_d/ e/=d/B/G/ |{gab} [cgc']/ z/ (a/g/ e/d/c/A/) | G/E/D/C/ z2 | [D^FAd] z z2 | z4 | %78
 ([FBe]d/B/ A/G/F/D/) | x2 z2 | (c/d/e/g/) [Be][FBd] | [EGc] z [cegc'] z |] %82
V:2
 z/ (D,,/E,,/F,,/) G,,/A,,/B,,/C,/ | [D,,D,][^D,,^D,] [E,,E,]2 | %2
 [B,,B,]/[B,,B,][B,,B,]/ [G,,G,][^G,,^G,] | [A,,A,] z !^![D,,D,] (3D,,/E,,/F,,/ |: %4
 G,,[D,G,B,] [D,,D,][D,G,B,] | [G,,G,][D,=F,G,B,] [D,,D,][D,F,G,B,] | E,[G,C] _E,[G,C] | %7
 D,[G,B,] [D,,D,][D,F,C] | G,,[D,G,B,] [D,,D,][D,G,B,] | %9
 [F,,F,]/[_E,,_E,][=E,,=E,]/- [E,,E,]/F,/G, | [D,,D,]2 z2 | [E,,B,,]A,,D, (3D,,/E,,/F,,/ | %12
 G,,[D,G,B,] [D,,D,][D,G,B,] | [G,,G,][D,=F,G,B,] [D,,D,][D,F,G,B,] | E,[G,C] _E,[G,C] | %15
 B,/A,/F,/_E,/- E,/C,/B,, | [E,,E,][E,^G,D] z2 | ^C,[E,G,A,] A,,[E,,E,]/[_E,,_E,]/ | %18
 [D,,D,]/E,/_E,/D,/ =E,/_E,/D,/E,/ |1 [A,,E,][D,,D,][G,,G,] [D,,D,] :|2 [A,,E,][D,,D,][G,,G,] z || %21
 G,/^G,A,/- A,^A, | B,/_B,A,/- A,_A, | G,^G,A,^A, | [B,,B,] z [G,,G,] z |:[K:C] [C,,C,] z z2 | %26
 z2[I:staff -1] A,/[I:staff +1]G,/E,/C,/ | [D,^F,A,] D,,/^E,,/ A,,/C,/D,/F,/ | %28
 A,/D,/^F,/A,/ C/A,/F,/D,/ | [G,,D,] z z2 | %30
[I:staff -1] (B,/A,/[I:staff +1]G,/"_LH"F,/) D,/B,,/A,,/G,,/ | [C,,C,][G,CE] [^F,,^F,][F,C_E] | %32
 [G,,G,][G,B,F] [D,,D,][G,B,F] | [C,,C,] z z2 | z2[I:staff -1] (A,/[I:staff +1]G,/E,/C,/) | %35
 [D,^F,A,] (D,,/^E,,/ A,,/C,/D,/F,/) | (A,/D,/^F,/A,/) (C/A,/F,/D,/) | [G,,D,] z z2 | %38
[I:staff -1] (B,/A,/[I:staff +1]G,/"_LH"F,/) (D,/B,,/A,,/G,,/) | C,[E,G,C] G,,[D,F,G,B,] |1 %40
 [C,C][G,,G,] [_G,,_G,][F,,F,] :|2 [C,,C,] z [C,,C,] z ||!8va(! e/^d/e/=d/- dc!8va)! | %43
 E/^D/E/=D/- DC |!8va(! e/^d/e/=d/- dc!8va)! | E/^D/E/=D/- DC | B,,[E,G,C] G,,[E,G,C] | %47
 C,[E,G,C] G,,[E,G,C] | D,[D,^F,C] [A,,A,][D,F,C] | [G,,G,] z z2 |!8va(! e/^d/e/=d/- dc!8va)! | %51
 E/^D/E/=D/- DC |!8va(! e/^d/e/=d/- dc!8va)! | E/^D/E/=D/- DC || B,,[E,G,C] G,,[E,G,C] | %55
 C,[E,G,C] G,,[E,G,C] | [D,,D,][^F,,^F,] [A,,A,][B,,B,] | [C,C] z [C,,C,] z |: %58
!8va(! e/^d/e/=d/- dc!8va)! | x4 |!8va(! e/^d/e/=d/- dc | x4 | e/^d/e/=d/- dc | x4 | z GA^A | %65
 B z !^![G,,G,] z!8va)! :| [C,,C,] z z2 | z2[I:staff -1] (A,/[I:staff +1]G,/E,/C,/) | %68
 [D,^F,A,] (D,,/^E,,/ A,,/C,/D,/F,/) | A,/D,/^F,/A,/ C/A,/F,/D,/ | [G,,D,] z z2 | %71
[I:staff -1] (B,/A,/[I:staff +1]G,/"^LH"F,/) (D,/B,,/A,,/G,,/) | [C,,C,][G,CE] [^F,,^F,][F,C_E] | %73
 [G,,G,][G,B,F] [D,,D,][G,CE] | [C,,C,] z z2 | z2[I:staff -1] (A,/[I:staff +1]G,/E,/C,/) | %76
 [D,^F,A,] (D,,/^E,,/ A,,/C,/D,/F,/) | A,/D,/^F,/A,/ C/A,/F,/D,/ | z4 | %79
[I:staff -1] (B,/A,/[I:staff +1]G,/"^LH"F,/ D,/B,,/A,,/G,,/) | C,[E,G,C] G,,[D,F,G,B,] | %81
 [C,,C,] z [C,,C,] z |] %82
V:3
 x4 | x4 | x4 | x4 |: x4 | x4 | x4 | x4 | x4 | x4 | [FA]/dB/ x2 | x4 | x4 | x4 | x4 | x4 | x4 | %17
 x4 | x4 |1 x4 :|2 x4 || x4 | x4 | x4 | x4 |:[K:C] x4 | x4 | x4 | x4 | x4 | x4 | x4 | x4 | x4 | %34
 x4 | x4 | x4 | x4 | x4 | x4 |1 x4 :|2 x3!8va(! x || x4!8va)! | x4 |!8va(! x4!8va)! | x4 | x4 | %47
 x4 | x4 | x4 |!8va(! x4!8va)! | x4 |!8va(! x4!8va)! | x4 || x4 | x4 | x4 | x4 |:!8va(! x4!8va)! | %59
 x4 |!8va(! x4 | x4 | x4 | x4 | x4 | x4!8va)! :| x4 | x4 | x4 | x4 | x4 | x4 | x4 | x4 | x4 | x4 | %76
 x4 | x4 | x4 | x4 | x4 | x4 |] %82

